X: 1470
T: The Humors Of Schull
M:C|
L:1/8
N:"collected by Beamish"
B:O'Neill's 1470
Z:"Transcribed by Bob Safranek, rjs@gsp.org"
Z:Ornament (~) is a mordant.
K:Am
EAAA   cAAA  | BGGG    BcdB  | eddB  A2 (ge) | dBGA  (BA) A2 |
EAAA   cAAA  | BGGG    BcdB  | EAAB  cde^f   | gedB   A2  z2 ||
eaaa a2 (ba) | a2 (ba) age^f | g2 gg gabg    | gedB (~BA) A2 |
eaaa a2 (ba) | a2 (ba) age^f | gedB  {d}cBce | gedB   A2  z2 |]


